X:635
T:Todlen Hame
T:My Ain Fireside
B:Gatherer's Musical Museum
Z:Nigel Gatherer
M:6/8
L:1/8
K:D
d/e/ | f>ed B>cd | A>Bd   e2 d/e/ | f>ed B>cd | A>Bd d2 :|
d    | g>ag f2 f | e/f/gf e2 d/e/ | f>ed B>cd | A>Bd d2 :|
